assets/awselasticfilesystemelasticthroughput/original.svg

<svg height="48" viewBox="0 0 48 48" width="48" xmlns="http://www.w3.org/2000/svg"><path d="m10.104 13h1.329a1.5 1.5 0 0 1 1.488 1.686l-.448 3.587 4.563-6.273h-2.036a1 1 0 0 1 -.919-1.394l2.402-5.606h-5.578zm-1.664 1.506a1.5 1.5 0 0 1 -.381-1.155l.9-9a1.495 1.495 0 0 1 1.493-1.351h6.79c.506 0 .973.252 1.252.675.278.422.325.952.126 1.416l-2.104 4.909h.52c.755 0 1.438.418 1.782 1.092.343.674.28 1.472-.165 2.084l-6.845 9.412a1 1 0 0 1 -1.177.342 1 1 0 0 1 -.624-1.054l.86-6.876h-1.315c-.423 0-.828-.18-1.112-.494m11.178 16.494h3.763l-1.881-3.764zm-2.513.553 3.5-7c.34-.678 1.449-.678 1.789 0l3.5 7a.998.998 0 0 1 -.894 1.447h-7a.998.998 0 0 1 -.895-1.447m15.895 3.447c1.102 0 2-.897 2-2s-.898-2-2-2c-1.103 0-2 .897-2 2s.897 2 2 2m0 2c-2.207 0-4-1.794-4-4s1.793-4 4-4 4 1.794 4 4-1.794 4-4 4m-25-2h4v-4h-4zm-2-5a1 1 0 0 1 1-1h6a1 1 0 0 1 1 1v6a1 1 0 0 1 -1 1h-6a1 1 0 0 1 -1-1zm39-11h-2v2h1v23h-35v-1h-2v2a1 1 0 0 0 1 1h37a1 1 0 0 0 1-1v-25a1 1 0 0 0 -1-1m-5 22h-37a1 1 0 0 1 -1-1v-23c0-1.654 1.345-3 3-3h1v2h-1c-.552 0-1 .449-1 1v22h35v-22c0-.551-.449-1-1-1h-4a1 1 0 0 1 -.97-.757l-.811-3.243h-6.438l-.812 3.243a1 1 0 0 1 -.969.757h-3v-2h2.218l.622-2.485a2 2 0 0 1 1.941-1.515h6.437c.92 0 1.718.623 1.941 1.515l.622 2.485h3.219c1.654 0 3 1.346 3 3v23a1 1 0 0 1 -1 1" fill="#7aa116" fill-rule="evenodd"/></svg>

<svg xmlns="http://www.w3.org/2000/svg" width="48" height="48" viewBox="0 0 48 48"><path fill="#7aa116" fill-rule="evenodd" d="M10.104 13h1.329a1.5 1.5 0 0 1 1.488 1.686l-.448 3.587L17.036 12H15a1 1 0 0 1-.919-1.394L16.483 5h-5.578zM8.44 14.506a1.5 1.5 0 0 1-.381-1.155l.9-9A1.495 1.495 0 0 1 10.452 3h6.79c.506 0 .973.252 1.252.675.278.422.325.952.126 1.416L16.516 10h.52c.755 0 1.438.418 1.782 1.092.343.674.28 1.472-.165 2.084l-6.845 9.412a1 1 0 0 1-1.177.342 1 1 0 0 1-.624-1.054l.86-6.876H9.552c-.423 0-.828-.18-1.112-.494M19.618 31h3.763L21.5 27.236zm-2.513.553 3.5-7c.34-.678 1.449-.678 1.789 0l3.5 7A.998.998 0 0 1 25 33h-7a.998.998 0 0 1-.895-1.447M33 35c1.102 0 2-.897 2-2s-.898-2-2-2c-1.103 0-2 .897-2 2s.897 2 2 2m0 2c-2.207 0-4-1.794-4-4s1.793-4 4-4 4 1.794 4 4-1.794 4-4 4M8 35h4v-4H8zm-2-5a1 1 0 0 1 1-1h6a1 1 0 0 1 1 1v6a1 1 0 0 1-1 1H7a1 1 0 0 1-1-1zm39-11h-2v2h1v23H9v-1H7v2a1 1 0 0 0 1 1h37a1 1 0 0 0 1-1V20a1 1 0 0 0-1-1m-5 22H3a1 1 0 0 1-1-1V17c0-1.654 1.345-3 3-3h1v2H5c-.552 0-1 .449-1 1v22h35V17c0-.551-.449-1-1-1h-4a1 1 0 0 1-.97-.757L32.219 12h-6.438l-.812 3.243A1 1 0 0 1 24 16h-3v-2h2.218l.622-2.485A2 2 0 0 1 25.781 10h6.437c.92 0 1.718.623 1.941 1.515L34.781 14H38c1.654 0 3 1.346 3 3v23a1 1 0 0 1-1 1"/></svg>
